dist/assets/img/svg/ad-06.svg

<svg width="32" height="32" viewBox="0 0 32 32" fill="none" xmlns="http://www.w3.org/2000/svg">
<g id="vuesax/outline/flash">
<g id="flash">
<path id="Vector" d="M13.3204 30.3333C13.0538 30.3333 12.8404 30.28 12.6804 30.2133C12.1471 30.0133 11.2404 29.36 11.2404 27.2933V18.6933H8.12043C6.33376 18.6933 5.69376 17.8533 5.4671 17.36C5.24043 16.8533 5.04043 15.8267 6.21376 14.48L16.3071 3.01334C17.6671 1.46668 18.7738 1.57334 19.3071 1.77334C19.8404 1.97334 20.7471 2.62667 20.7471 4.69334V13.2933H23.8671C25.6538 13.2933 26.2938 14.1333 26.5204 14.6267C26.7471 15.1333 26.9471 16.16 25.7738 17.5067L15.6804 28.9733C14.7338 30.0533 13.9071 30.3333 13.3204 30.3333ZM18.5738 3.65334C18.5338 3.70668 18.2538 3.84001 17.8138 4.34667L7.72043 15.8133C7.3471 16.24 7.29376 16.5067 7.29376 16.56C7.32043 16.5733 7.56043 16.7067 8.12043 16.7067H12.2404C12.7871 16.7067 13.2404 17.16 13.2404 17.7067V27.3067C13.2404 27.9733 13.3604 28.2667 13.4138 28.3467C13.4538 28.2933 13.7338 28.16 14.1738 27.6533L24.2671 16.1867C24.6404 15.76 24.6938 15.4933 24.6938 15.44C24.6671 15.4267 24.4271 15.2933 23.8671 15.2933H19.7471C19.2004 15.2933 18.7471 14.84 18.7471 14.2933V4.69334C18.7604 4.02667 18.6271 3.74668 18.5738 3.65334Z" fill="#5A5A5A"/>
</g>
</g>
</svg>

<svg width="32" height="32" fill="none" xmlns="http://www.w3.org/2000/svg"><path d="M13.32 30.333c-.266 0-.48-.053-.64-.12-.533-.2-1.44-.853-1.44-2.92v-8.6H8.12c-1.786 0-2.426-.84-2.653-1.333-.227-.507-.427-1.533.747-2.88L16.307 3.013c1.36-1.546 2.467-1.44 3-1.24.533.2 1.44.854 1.44 2.92v8.6h3.12c1.787 0 2.427.84 2.653 1.334.227.506.427 1.533-.746 2.88L15.68 28.973c-.946 1.08-1.773 1.36-2.36 1.36zm5.254-26.68c-.04.054-.32.187-.76.694L7.72 15.813c-.373.427-.426.694-.426.747.026.013.266.147.826.147h4.12c.547 0 1 .453 1 1v9.6c0 .666.12.96.174 1.04.04-.054.32-.187.76-.694l10.093-11.466c.373-.427.427-.694.427-.747-.027-.013-.267-.147-.827-.147h-4.12c-.547 0-1-.453-1-1v-9.6c.013-.666-.12-.946-.173-1.04z" fill="#5A5A5A"/></svg>.72043 15.8133C7.3471 16.24 7.29376 16.5067 7.29376 16.56C7.32043 16.5733 7.56043 16.7067 8.12043 16.7067H12.2404C12.7871 16.7067 13.2404 17.16 13.2404 17.7067V27.3067C13.2404 27.9733 13.3604 28.2667 13.4138 28.3467C13.4538 28.2933 13.7338 28.16 14.1738 27.6533L24.2671 16.1867C24.6404 15.76 24.6938 15.4933 24.6938 15.44C24.6671 15.4267 24.4271 15.2933 23.8671 15.2933H19.7471C19.2004 15.2933 18.7471 14.84 18.7471 14.2933V4.69334C18.7604 4.02667 18.6271 3.74668 18.5738 3.65334Z" fill="#5A5A5A"/>
</g>
</g>
</svg>
